X:1
T:Queen Victoria's Waltz TS.264
T:Queen Victoria's Waltz TS.264
T:In different hand C
C:In different hand C
L:1/8
Q:1/4=60
M:3/8
K:D
V:1 treble 
V:1
 (3D/D/D/ | D2 (3D/D/D/ | D2 (3D/D/D/ | DFA | d2 (3f/f/f/ | f2 (3f/f/f/ | f2 g | f2 ^e | f2 :: A | %10
 A>GF/G/ | (A<d) z | (B<e) z | d<f z | A>GF/G/ | A<d z | c>dg/c/ | [Fd]2 :: f/>f/ | f3 f/>f/ | %20
 ff/g/f/e/ | dd/e/d/c/ | B2 e/e/ | e2 e/e/ | ee/f/e/d/ | cc/d/c/B/ | A2 A | A>GF/G/ | A<d z | %29
 B<e z | d<f z | A>GF/G/ | A<d z | g>ec/e/ | [Fd]2 :| %35

